build/flags/Honduras.svg

<svg xmlns="http://www.w3.org/2000/svg" fill="none" viewBox="0 0 28 28" focusable="false"><defs><filter id="Honduras_svg__a"><feColorMatrix values="0 0 0 0 1 0 0 0 0 1 0 0 0 0 1 0 0 0 1 0"/></filter></defs><mask id="Honduras_svg__b" width="28" height="20" x="0" y="4" maskUnits="userSpaceOnUse"><g filter="url(#Honduras_svg__a)"><rect width="28" height="20" y="4" fill="#FFF" rx="3"/><rect width="27.5" height="19.5" x=".25" y="4.25" stroke="#F5F5F5" stroke-width=".5" rx="2.75"/></g></mask><path fill="none" d="M0 0H28V28H0z"/><rect width="28" height="20" y="4" fill="#FFF" rx="3"/><rect width="27.5" height="19.5" x=".25" y="4.25" stroke="#D6D8DD" stroke-width=".5" rx="2.75"/><g mask="url(#Honduras_svg__b)"><path fill="#0884E6" fill-rule="evenodd" d="M0 10.6667L28 10.6667L28 4L0 4L0 10.6667Z"/><path d="M28 10.6667L28 4L0 4L0 10.6667L28 10.6667Z"/><path fill="#0884E6" fill-rule="evenodd" d="M0 24L28 24L28 17.3334L0 17.3334L0 24Z"/><path d="M28 24L28 17.3334L0 17.3334L0 24L28 24Z"/><path fill="#0E88E9" fill-rule="evenodd" d="M14 14.6666L13.0572 14.9428L13.3334 14L13.0572 13.0571L14 13.3333L14.9428 13.0571L14.6667 14L14.9428 14.9428L14 14.6666Z"/><path d="M13.0572 14.9428L13.3334 14L13.0572 13.0571L14 13.3333L14.9428 13.0571L14.6667 14L14.9428 14.9428L14 14.6666L13.0572 14.9428Z"/><path fill="#0E88E9" fill-rule="evenodd" d="M19.3333 13.3334L18.3905 13.6095L18.6667 12.6667L18.3905 11.7239L19.3333 12L20.2761 11.7239L20 12.6667L20.2761 13.6095L19.3333 13.3334Z"/><path d="M18.3905 13.6095L18.6667 12.6667L18.3905 11.7239L19.3333 12L20.2761 11.7239L20 12.6667L20.2761 13.6095L19.3333 13.3334L18.3905 13.6095Z"/><path fill="#0E88E9" fill-rule="evenodd" d="M19.3333 16L18.3905 16.2761L18.6667 15.3333L18.3905 14.3905L19.3333 14.6667L20.2761 14.3905L20 15.3333L20.2761 16.2761L19.3333 16Z"/><path d="M18.3905 16.2761L18.6667 15.3333L18.3905 14.3905L19.3333 14.6667L20.2761 14.3905L20 15.3333L20.2761 16.2761L19.3333 16L18.3905 16.2761Z"/><path fill="#0E88E9" fill-rule="evenodd" d="M8.66665 16L7.72384 16.2761L7.99998 15.3333L7.72384 14.3905L8.66665 14.6667L9.60946 14.3905L9.33331 15.3333L9.60946 16.2761L8.66665 16Z"/><path d="M7.72384 16.2761L7.99998 15.3333L7.72384 14.3905L8.66665 14.6667L9.60946 14.3905L9.33331 15.3333L9.60946 16.2761L8.66665 16L7.72384 16.2761Z"/><path fill="#0E88E9" fill-rule="evenodd" d="M8.66665 13.3334L7.72384 13.6095L7.99998 12.6667L7.72384 11.7239L8.66665 12L9.60946 11.7239L9.33331 12.6667L9.60946 13.6095L8.66665 13.3334Z"/><path d="M7.72384 13.6095L7.99998 12.6667L7.72384 11.7239L8.66665 12L9.60946 11.7239L9.33331 12.6667L9.60946 13.6095L8.66665 13.3334L7.72384 13.6095Z"/></g></svg>

<svg xmlns="http://www.w3.org/2000/svg" fill="none" viewBox="0 0 28 28" focusable="false"><path fill="none" d="M0 0h28v28H0z"/><rect width="28" height="20" y="4" fill="#FFF" rx="3"/><rect width="27.5" height="19.5" x=".25" y="4.25" stroke="#D6D8DD" stroke-width=".5" rx="3"/><mask id="Honduras_svg__a" width="28" height="20" x="0" y="4" mask-type="alpha" maskUnits="userSpaceOnUse"><rect width="28" height="20" y="4" fill="#FFF" rx="3"/><rect width="27.5" height="19.5" x=".25" y="4.25" stroke="#F5F5F5" stroke-width=".5" rx="3"/></mask><g mask="url(#Honduras_svg__a)"><path fill="#0884E6" fill-rule="evenodd" d="M0 10.66h28V4H0z"/><path d="M28 10.66V4H0v6.66z"/></g><g mask="url(#Honduras_svg__a)"><path fill="#0884E6" fill-rule="evenodd" d="M0 24h28v-6.67H0z"/><path d="M28 24v-6.67H0V24z"/></g><g mask="url(#Honduras_svg__a)"><path fill="#0E88E9" fill-rule="evenodd" d="m14 14.66-.95.28.28-.95-.28-.94.95.28.94-.28-.28.94.28.95z"/><path d="m13.05 14.94.28-.95-.28-.94.95.28.94-.28-.28.94.28.95-.94-.28z"/></g><g mask="url(#Honduras_svg__a)"><path fill="#0E88E9" fill-rule="evenodd" d="m19.33 13.33-.94.27.27-.94-.27-.94.94.28.94-.28-.27.94.27.94z"/><path d="m18.39 13.6.27-.94-.27-.94.94.28.94-.28-.27.94.27.94-.94-.27z"/></g><g mask="url(#Honduras_svg__a)"><path fill="#0E88E9" fill-rule="evenodd" d="m19.33 16-.94.27.27-.94-.27-.94.94.27.94-.27-.27.94.27.94z"/><path d="m18.39 16.27.27-.94-.27-.94.94.27.94-.27-.27.94.27.94-.94-.27z"/></g><g mask="url(#Honduras_svg__a)"><path fill="#0E88E9" fill-rule="evenodd" d="m8.66 16-.94.27.28-.94-.28-.94.94.27.94-.27-.27.94.27.94z"/><path d="m7.72 16.27.28-.94-.28-.94.94.27.94-.27-.27.94.27.94-.94-.27z"/></g><g mask="url(#Honduras_svg__a)"><path fill="#0E88E9" fill-rule="evenodd" d="m8.66 13.33-.94.27.28-.94-.28-.94.94.28.94-.28-.27.94.27.94z"/><path d="m7.72 13.6.28-.94-.28-.94.94.28.94-.28-.27.94.27.94-.94-.27z"/></g></svg>
